src/assets/user-add.svg

<svg width="16" height="16" viewBox="0 0 16 16" fill="none" xmlns="http://www.w3.org/2000/svg">
<path d="M6 7.99997C6.79113 7.99997 7.56449 7.76538 8.22228 7.32585C8.88008 6.88632 9.39277 6.26161 9.69552 5.53071C9.99827 4.7998 10.0775 3.99553 9.92314 3.21961C9.7688 2.44369 9.38784 1.73095 8.82843 1.17154C8.26902 0.612134 7.55629 0.231171 6.78036 0.0768302C6.00444 -0.0775107 5.20017 0.00170263 4.46927 0.304453C3.73836 0.607204 3.11365 1.11989 2.67412 1.77769C2.2346 2.43549 2 3.20885 2 3.99997C2.00106 5.06051 2.42283 6.07731 3.17274 6.82723C3.92266 7.57715 4.93946 7.99891 6 7.99997ZM6 1.3333C6.52742 1.3333 7.04299 1.4897 7.48152 1.78272C7.92005 2.07574 8.26185 2.49221 8.46368 2.97948C8.66551 3.46675 8.71832 4.00293 8.61543 4.52021C8.51253 5.0375 8.25856 5.51265 7.88562 5.88559C7.51268 6.25853 7.03752 6.51251 6.52024 6.6154C6.00296 6.71829 5.46678 6.66548 4.97951 6.46365C4.49224 6.26182 4.07576 5.92002 3.78275 5.48149C3.48973 5.04296 3.33333 4.52739 3.33333 3.99997C3.33333 3.29273 3.61428 2.61445 4.11438 2.11435C4.61448 1.61426 5.29276 1.3333 6 1.3333Z" fill="#343434"/>
<path d="M13.9999 6.66626V4.66626H12.6666V6.66626H10.6666V7.99959H12.6666V9.99958H13.9999V7.99959H15.9999V6.66626H13.9999Z" fill="#343434"/>
<path d="M8.69533 9.33374H3.30467C2.42854 9.3348 1.5886 9.68331 0.969084 10.3028C0.349568 10.9223 0.00105855 11.7623 0 12.6384L0 16.0004H1.33333V12.6384C1.33386 12.1157 1.54173 11.6146 1.91131 11.245C2.28089 10.8755 2.782 10.6676 3.30467 10.6671H8.69533C9.218 10.6676 9.71911 10.8755 10.0887 11.245C10.4583 11.6146 10.6661 12.1157 10.6667 12.6384V16.0004H12V12.6384C11.9989 11.7623 11.6504 10.9223 11.0309 10.3028C10.4114 9.68331 9.57146 9.3348 8.69533 9.33374Z" fill="#343434"/>
</svg>

<svg width="16" height="16" fill="none" xmlns="http://www.w3.org/2000/svg">
  <path
    d="M6 8a4 4 0 100-8 4 4 0 000 8zm0-6.667a2.667 2.667 0 110 5.334 2.667 2.667 0 010-5.334zM14 6.666v-2h-1.333v2h-2V8h2v2H14V8h2V6.666h-2zM8.695 9.334h-5.39A3.309 3.309 0 000 12.638V16h1.333v-3.362a1.973 1.973 0 011.972-1.97h5.39a1.974 1.974 0 011.972 1.97V16H12v-3.362a3.309 3.309 0 00-3.305-3.304z"
    fill="currentColor" />
</svg>
